resources/content/packs/lut-cinematic/Soft-Pastel.cube
TITLE "Soft-Pastel"
LUT_3D_SIZE 5
DOMAIN_MIN 0.0 0.0 0.0
DOMAIN_MAX 1.0 1.0 1.0
0.078400 0.076800 0.080000
0.308400 0.076800 0.080000
0.538400 0.076800 0.080000
0.768400 0.076800 0.080000
0.998400 0.076800 0.080000
0.078400 0.306800 0.080000
0.308400 0.306800 0.080000
0.538400 0.306800 0.080000
0.768400 0.306800 0.080000
0.998400 0.306800 0.080000
0.078400 0.536800 0.080000
0.308400 0.536800 0.080000
0.538400 0.536800 0.080000
0.768400 0.536800 0.080000
0.998400 0.536800 0.080000
0.078400 0.766800 0.080000
0.308400 0.766800 0.080000
0.538400 0.766800 0.080000
0.768400 0.766800 0.080000
0.998400 0.766800 0.080000
0.078400 0.996800 0.080000
0.308400 0.996800 0.080000
0.538400 0.996800 0.080000
0.768400 0.996800 0.080000
0.998400 0.996800 0.080000
0.078400 0.076800 0.310000
0.308400 0.076800 0.310000
0.538400 0.076800 0.310000
0.768400 0.076800 0.310000
0.998400 0.076800 0.310000
0.078400 0.306800 0.310000
0.308400 0.306800 0.310000
0.538400 0.306800 0.310000
0.768400 0.306800 0.310000
0.998400 0.306800 0.310000
0.078400 0.536800 0.310000
0.308400 0.536800 0.310000
0.538400 0.536800 0.310000
0.768400 0.536800 0.310000
0.998400 0.536800 0.310000
0.078400 0.766800 0.310000
0.308400 0.766800 0.310000
0.538400 0.766800 0.310000
0.768400 0.766800 0.310000
0.998400 0.766800 0.310000
0.078400 0.996800 0.310000
0.308400 0.996800 0.310000
0.538400 0.996800 0.310000
0.768400 0.996800 0.310000
0.998400 0.996800 0.310000
0.078400 0.076800 0.540000
0.308400 0.076800 0.540000
0.538400 0.076800 0.540000
0.768400 0.076800 0.540000
0.998400 0.076800 0.540000
0.078400 0.306800 0.540000
0.308400 0.306800 0.540000
0.538400 0.306800 0.540000
0.768400 0.306800 0.540000
0.998400 0.306800 0.540000
0.078400 0.536800 0.540000
0.308400 0.536800 0.540000
0.538400 0.536800 0.540000
0.768400 0.536800 0.540000
0.998400 0.536800 0.540000
0.078400 0.766800 0.540000
0.308400 0.766800 0.540000
0.538400 0.766800 0.540000
0.768400 0.766800 0.540000
0.998400 0.766800 0.540000
0.078400 0.996800 0.540000
0.308400 0.996800 0.540000
0.538400 0.996800 0.540000
0.768400 0.996800 0.540000
0.998400 0.996800 0.540000
0.078400 0.076800 0.770000
0.308400 0.076800 0.770000
0.538400 0.076800 0.770000
0.768400 0.076800 0.770000
0.998400 0.076800 0.770000
0.078400 0.306800 0.770000
0.308400 0.306800 0.770000
0.538400 0.306800 0.770000
0.768400 0.306800 0.770000
0.998400 0.306800 0.770000
0.078400 0.536800 0.770000
0.308400 0.536800 0.770000
0.538400 0.536800 0.770000
0.768400 0.536800 0.770000
0.998400 0.536800 0.770000
0.078400 0.766800 0.770000
0.308400 0.766800 0.770000
0.538400 0.766800 0.770000
0.768400 0.766800 0.770000
0.998400 0.766800 0.770000
0.078400 0.996800 0.770000
0.308400 0.996800 0.770000
0.538400 0.996800 0.770000
0.768400 0.996800 0.770000
0.998400 0.996800 0.770000
0.078400 0.076800 1.000000
0.308400 0.076800 1.000000
0.538400 0.076800 1.000000
0.768400 0.076800 1.000000
0.998400 0.076800 1.000000
0.078400 0.306800 1.000000
0.308400 0.306800 1.000000
0.538400 0.306800 1.000000
0.768400 0.306800 1.000000
0.998400 0.306800 1.000000
0.078400 0.536800 1.000000
0.308400 0.536800 1.000000
0.538400 0.536800 1.000000
0.768400 0.536800 1.000000
0.998400 0.536800 1.000000
0.078400 0.766800 1.000000
0.308400 0.766800 1.000000
0.538400 0.766800 1.000000
0.768400 0.766800 1.000000
0.998400 0.766800 1.000000
0.078400 0.996800 1.000000
0.308400 0.996800 1.000000
0.538400 0.996800 1.000000
0.768400 0.996800 1.000000
0.998400 0.996800 1.000000
