resources/content/packs/lut-cinematic/Soft-Pastel.cube
TITLE "Soft-Pastel"
LUT_3D_SIZE 33
DOMAIN_MIN 0.0 0.0 0.0
DOMAIN_MAX 1.0 1.0 1.0
0.078400 0.076800 0.080000
0.107150 0.076800 0.080000
0.135900 0.076800 0.080000
0.164650 0.076800 0.080000
0.193400 0.076800 0.080000
0.222150 0.076800 0.080000
0.250900 0.076800 0.080000
0.279650 0.076800 0.080000
0.308400 0.076800 0.080000
0.337150 0.076800 0.080000
0.365900 0.076800 0.080000
0.394650 0.076800 0.080000
0.423400 0.076800 0.080000
0.452150 0.076800 0.080000
0.480900 0.076800 0.080000
0.509650 0.076800 0.080000
0.538400 0.076800 0.080000
0.567150 0.076800 0.080000
0.595900 0.076800 0.080000
0.624650 0.076800 0.080000
0.653400 0.076800 0.080000
0.682150 0.076800 0.080000
0.710900 0.076800 0.080000
0.739650 0.076800 0.080000
0.768400 0.076800 0.080000
0.797150 0.076800 0.080000
0.825900 0.076800 0.080000
0.854650 0.076800 0.080000
0.883400 0.076800 0.080000
0.912150 0.076800 0.080000
0.940900 0.076800 0.080000
0.969650 0.076800 0.080000
0.998400 0.076800 0.080000
0.078400 0.105550 0.080000
0.107150 0.105550 0.080000
0.135900 0.105550 0.080000
0.164650 0.105550 0.080000
0.193400 0.105550 0.080000
0.222150 0.105550 0.080000
0.250900 0.105550 0.080000
0.279650 0.105550 0.080000
0.308400 0.105550 0.080000
0.337150 0.105550 0.080000
0.365900 0.105550 0.080000
0.394650 0.105550 0.080000
0.423400 0.105550 0.080000
0.452150 0.105550 0.080000
0.480900 0.105550 0.080000
0.509650 0.105550 0.080000
0.538400 0.105550 0.080000
0.567150 0.105550 0.080000
0.595900 0.105550 0.080000
0.624650 0.105550 0.080000
0.653400 0.105550 0.080000
0.682150 0.105550 0.080000
0.710900 0.105550 0.080000
0.739650 0.105550 0.080000
0.768400 0.105550 0.080000
0.797150 0.105550 0.080000
0.825900 0.105550 0.080000
0.854650 0.105550 0.080000
0.883400 0.105550 0.080000
0.912150 0.105550 0.080000
0.940900 0.105550 0.080000
0.969650 0.105550 0.080000
0.998400 0.105550 0.080000
0.078400 0.134300 0.080000
0.107150 0.134300 0.080000
0.135900 0.134300 0.080000
0.164650 0.134300 0.080000
0.193400 0.134300 0.080000
0.222150 0.134300 0.080000
0.250900 0.134300 0.080000
0.279650 0.134300 0.080000
0.308400 0.134300 0.080000
0.337150 0.134300 0.080000
0.365900 0.134300 0.080000
0.394650 0.134300 0.080000
0.423400 0.134300 0.080000
0.452150 0.134300 0.080000
0.480900 0.134300 0.080000
0.509650 0.134300 0.080000
0.538400 0.134300 0.080000
0.567150 0.134300 0.080000
0.595900 0.134300 0.080000
0.624650 0.134300 0.080000
0.653400 0.134300 0.080000
0.682150 0.134300 0.080000
0.710900 0.134300 0.080000
0.739650 0.134300 0.080000
0.768400 0.134300 0.080000
0.797150 0.134300 0.080000
0.825900 0.134300 0.080000
0.854650 0.134300 0.080000
0.883400 0.134300 0.080000
0.912150 0.134300 0.080000
0.940900 0.134300 0.080000
0.969650 0.134300 0.080000
0.998400 0.134300 0.080000
0.078400 0.163050 0.080000
0.107150 0.163050 0.080000
0.135900 0.163050 0.080000
0.164650 0.163050 0.080000
0.193400 0.163050 0.080000
0.222150 0.163050 0.080000
0.250900 0.163050 0.080000
0.279650 0.163050 0.080000
0.308400 0.163050 0.080000
0.337150 0.163050 0.080000
0.365900 0.163050 0.080000
0.394650 0.163050 0.080000
0.423400 0.163050 0.080000
0.452150 0.163050 0.080000
0.480900 0.163050 0.080000
0.509650 0.163050 0.080000
0.538400 0.163050 0.080000
0.567150 0.163050 0.080000
0.595900 0.163050 0.080000
0.624650 0.163050 0.080000
0.653400 0.163050 0.080000
0.682150 0.163050 0.080000
0.710900 0.163050 0.080000
0.739650 0.163050 0.080000
0.768400 0.163050 0.080000
0.797150 0.163050 0.080000
0.825900 0.163050 0.080000
0.854650 0.163050 0.080000
0.883400 0.163050 0.080000
0.912150 0.163050 0.080000
0.940900 0.163050 0.080000
0.969650 0.163050 0.080000
0.998400 0.163050 0.080000
0.078400 0.191800 0.080000
0.107150 0.191800 0.080000
0.135900 0.191800 0.080000
0.164650 0.191800 0.080000
0.193400 0.191800 0.080000
0.222150 0.191800 0.080000
0.250900 0.191800 0.080000
0.279650 0.191800 0.080000
0.308400 0.191800 0.080000
0.337150 0.191800 0.080000
0.365900 0.191800 0.080000
0.394650 0.191800 0.080000
0.423400 0.191800 0.080000
0.452150 0.191800 0.080000
0.480900 0.191800 0.080000
0.509650 0.191800 0.080000
0.538400 0.191800 0.080000
0.567150 0.191800 0.080000
0.595900 0.191800 0.080000
0.624650 0.191800 0.080000
0.653400 0.191800 0.080000
0.682150 0.191800 0.080000
0.710900 0.191800 0.080000
0.739650 0.191800 0.080000
0.768400 0.191800 0.080000
0.797150 0.191800 0.080000
0.825900 0.191800 0.080000
0.854650 0.191800 0.080000
0.883400 0.191800 0.080000
0.912150 0.191800 0.080000
0.940900 0.191800 0.080000
0.969650 0.191800 0.080000
0.998400 0.191800 0.080000
0.078400 0.220550 0.080000
0.107150 0.220550 0.080000
0.135900 0.220550 0.080000
0.164650 0.220550 0.080000
0.193400 0.220550 0.080000
0.222150 0.220550 0.080000
0.250900 0.220550 0.080000
0.279650 0.220550 0.080000
0.308400 0.220550 0.080000
0.337150 0.220550 0.080000
0.365900 0.220550 0.080000
0.394650 0.220550 0.080000
0.423400 0.220550 0.080000
0.452150 0.220550 0.080000
0.480900 0.220550 0.080000
0.509650 0.220550 0.080000
0.538400 0.220550 0.080000
0.567150 0.220550 0.080000
0.595900 0.220550 0.080000
0.624650 0.220550 0.080000
0.653400 0.220550 0.080000
0.682150 0.220550 0.080000
0.710900 0.220550 0.080000
0.739650 0.220550 0.080000
0.768400 0.220550 0.080000
0.797150 0.220550 0.080000
0.825900 0.220550 0.080000
0.854650 0.220550 0.080000
0.883400 0.220550 0.080000
0.912150 0.220550 0.080000
0.940900 0.220550 0.080000
0.969650 0.220550 0.080000
0.998400 0.220550 0.080000
0.078400 0.249300 0.080000
0.107150 0.249300 0.080000
0.135900 0.249300 0.080000
0.164650 0.249300 0.080000
0.193400 0.249300 0.080000
0.222150 0.249300 0.080000
0.250900 0.249300 0.080000
0.279650 0.249300 0.080000
0.308400 0.249300 0.080000
0.337150 0.249300 0.080000
0.365900 0.249300 0.080000
0.394650 0.249300 0.080000
0.423400 0.249300 0.080000
0.452150 0.249300 0.080000
0.480900 0.249300 0.080000
0.509650 0.249300 0.080000
0.538400 0.249300 0.080000
0.567150 0.249300 0.080000
0.595900 0.249300 0.080000
0.624650 0.249300 0.080000
0.653400 0.249300 0.080000
0.682150 0.249300 0.080000
0.710900 0.249300 0.080000
0.739650 0.249300 0.080000
0.768400 0.249300 0.080000
0.797150 0.249300 0.080000
0.825900 0.249300 0.080000
0.854650 0.249300 0.080000
0.883400 0.249300 0.080000
0.912150 0.249300 0.080000
0.940900 0.249300 0.080000
0.969650 0.249300 0.080000
0.998400 0.249300 0.080000
0.078400 0.278050 0.080000
0.107150 0.278050 0.080000
0.135900 0.278050 0.080000
0.164650 0.278050 0.080000
0.193400 0.278050 0.080000
0.222150 0.278050 0.080000
0.250900 0.278050 0.080000
0.279650 0.278050 0.080000
0.308400 0.278050 0.080000
0.337150 0.278050 0.080000
0.365900 0.278050 0.080000
0.394650 0.278050 0.080000
0.423400 0.278050 0.080000
0.452150 0.278050 0.080000
0.480900 0.278050 0.080000
0.509650 0.278050 0.080000
0.538400 0.278050 0.080000
0.567150 0.278050 0.080000
0.595900 0.278050 0.080000
0.624650 0.278050 0.080000
0.653400 0.278050 0.080000
0.682150 0.278050 0.080000
0.710900 0.278050 0.080000
0.739650 0.278050 0.080000
0.768400 0.278050 0.080000
0.797150 0.278050 0.080000
0.825900 0.278050 0.080000
0.854650 0.278050 0.080000
0.883400 0.278050 0.080000
0.912150 0.278050 0.080000
0.940900 0.278050 0.080000
0.969650 0.278050 0.080000
0.998400 0.278050 0.080000
0.078400 0.306800 0.080000
0.107150 0.306800 0.080000
0.135900 0.306800 0.080000
0.164650 0.306800 0.080000
0.193400 0.306800 0.080000
0.222150 0.306800 0.080000
0.250900 0.306800 0.080000
0.279650 0.306800 0.080000
0.308400 0.306800 0.080000
0.337150 0.306800 0.080000
0.365900 0.306800 0.080000
0.394650 0.306800 0.080000
0.423400 0.306800 0.080000
0.452150 0.306800 0.080000
0.480900 0.306800 0.080000
0.509650 0.306800 0.080000
0.538400 0.306800 0.080000
0.567150 0.306800 0.080000
0.595900 0.306800 0.080000
0.624650 0.306800 0.080000
0.653400 0.306800 0.080000
0.682150 0.306800 0.080000
0.710900 0.306800 0.080000
0.739650 0.306800 0.080000
0.768400 0.306800 0.080000
0.797150 0.306800 0.080000
0.825900 0.306800 0.080000
0.854650 0.306800 0.080000
0.883400 0.306800 0.080000
0.912150 0.306800 0.080000
0.940900 0.306800 0.080000
0.969650 0.306800 0.080000
0.998400 0.306800 0.080000
0.078400 0.335550 0.080000
0.107150 0.335550 0.080000
0.135900 0.335550 0.080000
0.164650 0.335550 0.080000
0.193400 0.335550 0.080000
0.222150 0.335550 0.080000
0.250900 0.335550 0.080000
0.279650 0.335550 0.080000
0.308400 0.335550 0.080000
0.337150 0.335550 0.080000
0.365900 0.335550 0.080000
0.394650 0.335550 0.080000
0.423400 0.335550 0.080000
0.452150 0.335550 0.080000
0.480900 0.335550 0.080000
0.509650 0.335550 0.080000
0.538400 0.335550 0.080000
0.567150 0.335550 0.080000
0.595900 0.335550 0.080000
0.624650 0.335550 0.080000
0.653400 0.335550 0.080000
0.682150 0.335550 0.080000
0.710900 0.335550 0.080000
0.739650 0.335550 0.080000
0.768400 0.335550 0.080000
0.797150 0.335550 0.080000
0.825900 0.335550 0.080000
0.854650 0.335550 0.080000
0.883400 0.335550 0.080000
0.912150 0.335550 0.080000
0.940900 0.335550 0.080000
0.969650 0.335550 0.080000
0.998400 0.335550 0.080000
0.078400 0.364300 0.080000
0.107150 0.364300 0.080000
0.135900 0.364300 0.080000
0.164650 0.364300 0.080000
0.193400 0.364300 0.080000
0.222150 0.364300 0.080000
0.250900 0.364300 0.080000
0.279650 0.364300 0.080000
0.308400 0.364300 0.080000
0.337150 0.364300 0.080000
0.365900 0.364300 0.080000
0.394650 0.364300 0.080000
0.423400 0.364300 0.080000
0.452150 0.364300 0.080000
0.480900 0.364300 0.080000
0.509650 0.364300 0.080000
0.538400 0.364300 0.080000
0.567150 0.364300 0.080000
0.595900 0.364300 0.080000
0.624650 0.364300 0.080000
0.653400 0.364300 0.080000
0.682150 0.364300 0.080000
0.710900 0.364300 0.080000
0.739650 0.364300 0.080000
0.768400 0.364300 0.080000
0.797150 0.364300 0.080000
0.825900 0.364300 0.080000
0.854650 0.364300 0.080000
0.883400 0.364300 0.080000
0.912150 0.364300 0.080000
0.940900 0.364300 0.080000
0.969650 0.364300 0.080000
0.998400 0.364300 0.080000
0.078400 0.393050 0.080000
0.107150 0.393050 0.080000
0.135900 0.393050 0.080000
0.164650 0.393050 0.080000
0.193400 0.393050 0.080000
0.222150 0.393050 0.080000
0.250900 0.393050 0.080000
0.279650 0.393050 0.080000
0.308400 0.393050 0.080000
0.337150 0.393050 0.080000
0.365900 0.393050 0.080000
0.394650 0.393050 0.080000
0.423400 0.393050 0.080000
0.452150 0.393050 0.080000
0.480900 0.393050 0.080000
0.509650 0.393050 0.080000
0.538400 0.393050 0.080000
0.567150 0.393050 0.080000
0.595900 0.393050 0.080000
0.624650 0.393050 0.080000
0.653400 0.393050 0.080000
0.682150 0.393050 0.080000
0.710900 0.393050 0.080000
0.739650 0.393050 0.080000
0.768400 0.393050 0.080000
0.797150 0.393050 0.080000
0.825900 0.393050 0.080000
0.854650 0.393050 0.080000
0.883400 0.393050 0.080000
0.912150 0.393050 0.080000
0.940900 0.393050 0.080000
0.969650 0.393050 0.080000
0.998400 0.393050 0.080000
0.078400 0.421800 0.080000
0.107150 0.421800 0.080000
0.135900 0.421800 0.080000
0.164650 0.421800 0.080000
0.193400 0.421800 0.080000
0.222150 0.421800 0.080000
0.250900 0.421800 0.080000
0.279650 0.421800 0.080000
0.308400 0.421800 0.080000
0.337150 0.421800 0.080000
0.365900 0.421800 0.080000
0.394650 0.421800 0.080000
0.423400 0.421800 0.080000
0.452150 0.421800 0.080000
0.480900 0.421800 0.080000
0.509650 0.421800 0.080000
0.538400 0.421800 0.080000
0.567150 0.421800 0.080000
0.595900 0.421800 0.080000
0.624650 0.421800 0.080000
0.653400 0.421800 0.080000
0.682150 0.421800 0.080000
0.710900 0.421800 0.080000
0.739650 0.421800 0.080000
0.768400 0.421800 0.080000
0.797150 0.421800 0.080000
0.825900 0.421800 0.080000
0.854650 0.421800 0.080000
0.883400 0.421800 0.080000
0.912150 0.421800 0.080000
0.940900 0.421800 0.080000
0.969650 0.421800 0.080000
0.998400 0.421800 0.080000
0.078400 0.450550 0.080000
0.107150 0.450550 0.080000
0.135900 0.450550 0.080000
0.164650 0.450550 0.080000
0.193400 0.450550 0.080000
0.222150 0.450550 0.080000
0.250900 0.450550 0.080000
0.279650 0.450550 0.080000
0.308400 0.450550 0.080000
0.337150 0.450550 0.080000
0.365900 0.450550 0.080000
0.394650 0.450550 0.080000
0.423400 0.450550 0.080000
0.452150 0.450550 0.080000
0.480900 0.450550 0.080000
0.509650 0.450550 0.080000
0.538400 0.450550 0.080000
0.567150 0.450550 0.080000
0.595900 0.450550 0.080000
0.624650 0.450550 0.080000
0.653400 0.450550 0.080000
0.682150 0.450550 0.080000
0.710900 0.450550 0.080000
0.739650 0.450550 0.080000
0.768400 0.450550 0.080000
0.797150 0.450550 0.080000
0.825900 0.450550 0.080000
0.854650 0.450550 0.080000
0.883400 0.450550 0.080000
0.912150 0.450550 0.080000
0.940900 0.450550 0.080000
0.969650 0.450550 0.080000
0.998400 0.450550 0.080000
0.078400 0.479300 0.080000
0.107150 0.479300 0.080000
0.135900 0.479300 0.080000
0.164650 0.479300 0.080000
0.193400 0.479300 0.080000
0.222150 0.479300 0.080000
0.250900 0.479300 0.080000
0.279650 0.479300 0.080000
0.308400 0.479300 0.080000
0.337150 0.479300 0.080000
0.365900 0.479300 0.080000
0.394650 0.479300 0.080000
0.423400 0.479300 0.080000
0.452150 0.479300 0.080000
0.480900 0.479300 0.080000
0.509650 0.479300 0.080000
0.538400 0.479300 0.080000
0.567150 0.479300 0.080000
0.595900 0.479300 0.080000
0.624650 0.479300 0.080000
0.653400 0.479300 0.080000
0.682150 0.479300 0.080000
0.710900 0.479300 0.080000
0.739650 0.479300 0.080000
0.768400 0.479300 0.080000
0.797150 0.479300 0.080000
0.825900 0.479300 0.080000
0.854650 0.479300 0.080000
0.883400 0.479300 0.080000
0.912150 0.479300 0.080000
0.940900 0.479300 0.080000
0.969650 0.479300 0.080000
0.998400 0.479300 0.080000
0.078400 0.508050 0.080000
0.107150 0.508050 0.080000
0.135900 0.508050 0.080000
0.164650 0.508050 0.080000
0.193400 0.508050 0.080000
0.222150 0.508050 0.080000
0.250900 0.508050 0.080000
0.279650 0.508050 0.080000
0.308400 0.508050 0.080000
0.337150 0.508050 0.080000
0.365900 0.508050 0.080000
0.394650 0.508050 0.080000
0.423400 0.508050 0.080000
0.452150 0.508050 0.080000
0.480900 0.508050 0.080000
0.509650 0.508050 0.080000
0.538400 0.508050 0.080000
0.567150 0.508050 0.080000
0.595900 0.508050 0.080000
0.624650 0.508050 0.080000
0.653400 0.508050 0.080000
0.682150 0.508050 0.080000
0.710900 0.508050 0.080000
0.739650 0.508050 0.080000
0.768400 0.508050 0.080000
0.797150 0.508050 0.080000
0.825900 0.508050 0.080000
0.854650 0.508050 0.080000
0.883400 0.508050 0.080000
0.912150 0.508050 0.080000
0.940900 0.508050 0.080000
0.969650 0.508050 0.080000
0.998400 0.508050 0.080000
0.078400 0.536800 0.080000
0.107150 0.536800 0.080000
0.135900 0.536800 0.080000
0.164650 0.536800 0.080000
0.193400 0.536800 0.080000
0.222150 0.536800 0.080000
0.250900 0.536800 0.080000
0.279650 0.536800 0.080000
0.308400 0.536800 0.080000
0.337150 0.536800 0.080000
0.365900 0.536800 0.080000
0.394650 0.536800 0.080000
0.423400 0.536800 0.080000
0.452150 0.536800 0.080000
0.480900 0.536800 0.080000
0.509650 0.536800 0.080000
0.538400 0.536800 0.080000
0.567150 0.536800 0.080000
0.595900 0.536800 0.080000
0.624650 0.536800 0.080000
0.653400 0.536800 0.080000
0.682150 0.536800 0.080000
0.710900 0.536800 0.080000
0.739650 0.536800 0.080000
0.768400 0.536800 0.080000
0.797150 0.536800 0.080000
0.825900 0.536800 0.080000
0.854650 0.536800 0.080000
0.883400 0.536800 0.080000
0.912150 0.536800 0.080000
0.940900 0.536800 0.080000
0.969650 0.536800 0.080000
0.998400 0.536800 0.080000
0.078400 0.565550 0.080000
0.107150 0.565550 0.080000
0.135900 0.565550 0.080000
0.164650 0.565550 0.080000
0.193400 0.565550 0.080000
0.222150 0.565550 0.080000
0.250900 0.565550 0.080000
0.279650 0.565550 0.080000
0.308400 0.565550 0.080000
0.337150 0.565550 0.080000
0.365900 0.565550 0.080000
0.394650 0.565550 0.080000
0.423400 0.565550 0.080000
0.452150 0.565550 0.080000
0.480900 0.565550 0.080000
0.509650 0.565550 0.080000
0.538400 0.565550 0.080000
0.567150 0.565550 0.080000
0.595900 0.565550 0.080000
0.624650 0.565550 0.080000
0.653400 0.565550 0.080000
0.682150 0.565550 0.080000
0.710900 0.565550 0.080000
0.739650 0.565550 0.080000
0.768400 0.565550 0.080000
0.797150 0.565550 0.080000
0.825900 0.565550 0.080000
0.854650 0.565550 0.080000
0.883400 0.565550 0.080000
0.912150 0.565550 0.080000
0.940900 0.565550 0.080000
0.969650 0.565550 0.080000
0.998400 0.565550 0.080000
0.078400 0.594300 0.080000
0.107150 0.594300 0.080000
0.135900 0.594300 0.080000
0.164650 0.594300 0.080000
0.193400 0.594300 0.080000
0.222150 0.594300 0.080000
0.250900 0.594300 0.080000
0.279650 0.594300 0.080000
0.308400 0.594300 0.080000
0.337150 0.594300 0.080000
0.365900 0.594300 0.080000
0.394650 0.594300 0.080000
0.423400 0.594300 0.080000
0.452150 0.594300 0.080000
0.480900 0.594300 0.080000
0.509650 0.594300 0.080000
0.538400 0.594300 0.080000
0.567150 0.594300 0.080000
0.595900 0.594300 0.080000
0.624650 0.594300 0.080000
0.653400 0.594300 0.080000
0.682150 0.594300 0.080000
0.710900 0.594300 0.080000
0.739650 0.594300 0.080000
0.768400 0.594300 0.080000
0.797150 0.594300 0.080000
0.825900 0.594300 0.080000
0.854650 0.594300 0.080000
0.883400 0.594300 0.080000
0.912150 0.594300 0.080000
0.940900 0.594300 0.080000
0.969650 0.594300 0.080000
0.998400 0.594300 0.080000
0.078400 0.623050 0.080000
0.107150 0.623050 0.080000
0.135900 0.623050 0.080000
0.164650 0.623050 0.080000
0.193400 0.623050 0.080000
0.222150 0.623050 0.080000
0.250900 0.623050 0.080000
0.279650 0.623050 0.080000
0.308400 0.623050 0.080000
0.337150 0.623050 0.080000
0.365900 0.623050 0.080000
0.394650 0.623050 0.080000
0.423400 0.623050 0.080000
0.452150 0.623050 0.080000
0.480900 0.623050 0.080000
0.509650 0.623050 0.080000
0.538400 0.623050 0.080000
0.567150 0.623050 0.080000
0.595900 0.623050 0.080000
0.624650 0.623050 0.080000
0.653400 0.623050 0.080000
0.682150 0.623050 0.080000
0.710900 0.623050 0.080000
0.739650 0.623050 0.080000
0.768400 0.623050 0.080000
0.797150 0.623050 0.080000
0.825900 0.623050 0.080000
0.854650 0.623050 0.080000
0.883400 0.623050 0.080000
0.912150 0.623050 0.080000
0.940900 0.623050 0.080000
0.969650 0.623050 0.080000
0.998400 0.623050 0.080000
0.078400 0.651800 0.080000
0.107150 0.651800 0.080000
0.135900 0.651800 0.080000
0.164650 0.651800 0.080000
0.193400 0.651800 0.080000
0.222150 0.651800 0.080000
0.250900 0.651800 0.080000
0.279650 0.651800 0.080000
0.308400 0.651800 0.080000
0.337150 0.651800 0.080000
0.365900 0.651800 0.080000
0.394650 0.651800 0.080000
0.423400 0.651800 0.080000
0.452150 0.651800 0.080000
0.480900 0.651800 0.080000
0.509650 0.651800 0.080000
0.538400 0.651800 0.080000
0.567150 0.651800 0.080000
0.595900 0.651800 0.080000
0.624650 0.651800 0.080000
0.653400 0.651800 0.080000
0.682150 0.651800 0.080000
0.710900 0.651800 0.080000
0.739650 0.651800 0.080000
0.768400 0.651800 0.080000
0.797150 0.651800 0.080000
0.825900 0.651800 0.080000
0.854650 0.651800 0.080000
0.883400 0.651800 0.080000
0.912150 0.651800 0.080000
0.940900 0.651800 0.080000
0.969650 0.651800 0.080000
0.998400 0.651800 0.080000
0.078400 0.680550 0.080000
0.107150 0.680550 0.080000
0.135900 0.680550 0.080000
0.164650 0.680550 0.080000
0.193400 0.680550 0.080000
0.222150 0.680550 0.080000
0.250900 0.680550 0.080000
0.279650 0.680550 0.080000
0.308400 0.680550 0.080000
0.337150 0.680550 0.080000
0.365900 0.680550 0.080000
0.394650 0.680550 0.080000
0.423400 0.680550 0.080000
0.452150 0.680550 0.080000
0.480900 0.680550 0.080000
0.509650 0.680550 0.080000
0.538400 0.680550 0.080000
0.567150 0.680550 0.080000
0.595900 0.680550 0.080000
0.624650 0.680550 0.080000
0.653400 0.680550 0.080000
0.682150 0.680550 0.080000
0.710900 0.680550 0.080000
0.739650 0.680550 0.080000
0.768400 0.680550 0.080000
0.797150 0.680550 0.080000
0.825900 0.680550 0.080000
0.854650 0.680550 0.080000
0.883400 0.680550 0.080000
0.912150 0.680550 0.080000
0.940900 0.680550 0.080000
0.969650 0.680550 0.080000
0.998400 0.680550 0.080000
0.078400 0.709300 0.080000
0.107150 0.709300 0.080000
0.135900 0.709300 0.080000
0.164650 0.709300 0.080000
0.193400 0.709300 0.080000
0.222150 0.709300 0.080000
0.250900 0.709300 0.080000
0.279650 0.709300 0.080000
0.308400 0.709300 0.080000
0.337150 0.709300 0.080000
0.365900 0.709300 0.080000
0.394650 0.709300 0.080000
0.423400 0.709300 0.080000
0.452150 0.709300 0.080000
0.480900 0.709300 0.080000
0.509650 0.709300 0.080000
0.538400 0.709300 0.080000
0.567150 0.709300 0.080000
0.595900 0.709300 0.080000
0.624650 0.709300 0.080000
0.653400 0.709300 0.080000
0.682150 0.709300 0.080000
0.710900 0.709300 0.080000
0.739650 0.709300 0.080000
0.768400 0.709300 0.080000
0.797150 0.709300 0.080000
0.825900 0.709300 0.080000
0.854650 0.709300 0.080000
0.883400 0.709300 0.080000
0.912150 0.709300 0.080000
0.940900 0.709300 0.080000
0.969650 0.709300 0.080000
0.998400 0.709300 0.080000
0.078400 0.738050 0.080000
0.107150 0.738050 0.080000
0.135900 0.738050 0.080000
0.164650 0.738050 0.080000
0.193400 0.738050 0.080000
0.222150 0.738050 0.080000
0.250900 0.738050 0.080000
0.279650 0.738050 0.080000
0.308400 0.738050 0.080000
0.337150 0.738050 0.080000
0.365900 0.738050 0.080000
0.394650 0.738050 0.080000
0.423400 0.738050 0.080000
0.452150 0.738050 0.080000
0.480900 0.738050 0.080000
0.509650 0.738050 0.080000
0.538400 0.738050 0.080000
0.567150 0.738050 0.080000
0.595900 0.738050 0.080000
0.624650 0.738050 0.080000
0.653400 0.738050 0.080000
0.682150 0.738050 0.080000
0.710900 0.738050 0.080000
0.739650 0.738050 0.080000
0.768400 0.738050 0.080000
0.797150 0.738050 0.080000
0.825900 0.738050 0.080000
0.854650 0.738050 0.080000
0.883400 0.738050 0.080000
0.912150 0.738050 0.080000
0.940900 0.738050 0.080000
0.969650 0.738050 0.080000
0.998400 0.738050 0.080000
0.078400 0.766800 0.080000
0.107150 0.766800 0.080000
0.135900 0.766800 0.080000
0.164650 0.766800 0.080000
0.193400 0.766800 0.080000
0.222150 0.766800 0.080000
0.250900 0.766800 0.080000
0.279650 0.766800 0.080000
0.308400 0.766800 0.080000
0.337150 0.766800 0.080000
0.365900 0.766800 0.080000
0.394650 0.766800 0.080000
0.423400 0.766800 0.080000
0.452150 0.766800 0.080000
0.480900 0.766800 0.080000
0.509650 0.766800 0.080000
0.538400 0.766800 0.080000
0.567150 0.766800 0.080000
0.595900 0.766800 0.080000
0.624650 0.766800 0.080000
0.653400 0.766800 0.080000
0.682150 0.766800 0.080000
0.710900 0.766800 0.080000
0.739650 0.766800 0.080000
0.768400 0.766800 0.080000
0.797150 0.766800 0.080000
0.825900 0.766800 0.080000
0.854650 0.766800 0.080000
0.883400 0.766800 0.080000
0.912150 0.766800 0.080000
0.940900 0.766800 0.080000
0.969650 0.766800 0.080000
0.998400 0.766800 0.080000
0.078400 0.795550 0.080000
0.107150 0.795550 0.080000
0.135900 0.795550 0.080000
0.164650 0.795550 0.080000
0.193400 0.795550 0.080000
0.222150 0.795550 0.080000
0.250900 0.795550 0.080000
0.279650 0.795550 0.080000
0.308400 0.795550 0.080000
0.337150 0.795550 0.080000
0.365900 0.795550 0.080000
0.394650 0.795550 0.080000
0.423400 0.795550 0.080000
0.452150 0.795550 0.080000
0.480900 0.795550 0.080000
0.509650 0.795550 0.080000
0.538400 0.795550 0.080000
0.567150 0.795550 0.080000
0.595900 0.795550 0.080000
0.624650 0.795550 0.080000
0.653400 0.795550 0.080000
0.682150 0.795550 0.080000
0.710900 0.795550 0.080000
0.739650 0.795550 0.080000
0.768400 0.795550 0.080000
0.797150 0.795550 0.080000
0.825900 0.795550 0.080000
0.854650 0.795550 0.080000
0.883400 0.795550 0.080000
0.912150 0.795550 0.080000
0.940900 0.795550 0.080000
0.969650 0.795550 0.080000
0.998400 0.795550 0.080000
0.078400 0.824300 0.080000
0.107150 0.824300 0.080000
0.135900 0.824300 0.080000
0.164650 0.824300 0.080000
0.193400 0.824300 0.080000
0.222150 0.824300 0.080000
0.250900 0.824300 0.080000
0.279650 0.824300 0.080000
0.308400 0.824300 0.080000
0.337150 0.824300 0.080000
0.365900 0.824300 0.080000
0.394650 0.824300 0.080000
0.423400 0.824300 0.080000
0.452150 0.824300 0.080000
0.480900 0.824300 0.080000
0.509650 0.824300 0.080000
0.538400 0.824300 0.080000
0.567150 0.824300 0.080000
0.595900 0.824300 0.080000
0.624650 0.824300 0.080000
0.653400 0.824300 0.080000
0.682150 0.824300 0.080000
0.710900 0.824300 0.080000
0.739650 0.824300 0.080000
0.768400 0.824300 0.080000
0.797150 0.824300 0.080000
0.825900 0.824300 0.080000
