resources/content/packs/lut-cinematic/Teal-Orange.cube
TITLE "Teal-Orange"
LUT_3D_SIZE 5
DOMAIN_MIN 0.0 0.0 0.0
DOMAIN_MAX 1.0 1.0 1.0
0.000000 0.000000 0.015000
0.300984 0.000000 0.008303
0.601968 0.000000 0.001606
0.902953 0.000000 0.000000
1.000000 0.000000 0.000000
0.000000 0.253373 0.000000
0.277383 0.247123 0.000000
0.578367 0.240872 0.000000
0.879351 0.234622 0.000000
1.000000 0.228371 0.000000
0.000000 0.506746 0.000000
0.253781 0.500496 0.000000
0.554765 0.494245 0.000000
0.855749 0.487995 0.000000
1.000000 0.481744 0.000000
0.000000 0.760119 0.000000
0.230179 0.753869 0.000000
0.531164 0.747618 0.000000
0.832148 0.741368 0.000000
1.000000 0.735118 0.000000
0.000000 1.000000 0.000000
0.206578 1.000000 0.000000
0.507562 1.000000 0.000000
0.808546 0.994741 0.000000
1.000000 0.988491 0.000000
0.000000 0.000000 0.306726
0.298602 0.000000 0.300029
0.599586 0.000000 0.293332
0.900570 0.000000 0.286635
1.000000 0.000000 0.279938
0.000000 0.251250 0.284197
0.275000 0.245000 0.277500
0.575984 0.238750 0.270803
0.876968 0.232499 0.264106
1.000000 0.226249 0.257409
0.000000 0.504624 0.261668
0.251398 0.498373 0.254971
0.552383 0.492123 0.248274
0.853367 0.485872 0.241577
1.000000 0.479622 0.234880
0.000000 0.757997 0.239139
0.227797 0.751746 0.232442
0.528781 0.745496 0.225745
0.829765 0.739245 0.219049
1.000000 0.732995 0.212352
0.000000 1.000000 0.216610
0.204195 1.000000 0.209914
0.505179 0.998869 0.203217
0.806164 0.992618 0.196520
1.000000 0.986368 0.189823
0.000000 0.000000 0.598451
0.296219 0.000000 0.591755
0.597203 0.000000 0.585058
0.898187 0.000000 0.578361
1.000000 0.000000 0.571664
0.000000 0.249128 0.575923
0.272617 0.242877 0.569226
0.573602 0.236627 0.562529
0.874586 0.230376 0.555832
1.000000 0.224126 0.549135
0.000000 0.502501 0.553394
0.249016 0.496250 0.546697
0.550000 0.490000 0.540000
0.850984 0.483750 0.533303
1.000000 0.477499 0.526606
0.000000 0.755874 0.530865
0.225414 0.749624 0.524168
0.526398 0.743373 0.517471
0.827383 0.737123 0.510774
1.000000 0.730872 0.504077
0.000000 1.000000 0.508336
0.201813 1.000000 0.501639
0.502797 0.996746 0.494942
0.803781 0.990496 0.488245
1.000000 0.984245 0.481549
0.000000 0.000000 0.890177
0.293836 0.000000 0.883480
0.594821 0.000000 0.876783
0.895805 0.000000 0.870086
1.000000 0.000000 0.863390
0.000000 0.247005 0.867648
0.270235 0.240755 0.860951
0.571219 0.234504 0.854255
0.872203 0.228254 0.847558
1.000000 0.222003 0.840861
0.000000 0.500378 0.845120
0.246633 0.494128 0.838423
0.547617 0.487877 0.831726
0.848602 0.481627 0.825029
1.000000 0.475376 0.818332
0.000000 0.753751 0.822591
0.223032 0.747501 0.815894
0.524016 0.741250 0.809197
0.825000 0.735000 0.802500
1.000000 0.728750 0.795803
0.000000 1.000000 0.800062
0.199430 1.000000 0.793365
0.500414 0.994624 0.786668
0.801398 0.988373 0.779971
1.000000 0.982123 0.773274
0.000000 0.000000 1.000000
0.291454 0.000000 1.000000
0.592438 0.000000 1.000000
0.893422 0.000000 1.000000
1.000000 0.000000 1.000000
0.000000 0.244882 1.000000
0.267852 0.238632 1.000000
0.568836 0.232382 1.000000
0.869821 0.226131 1.000000
1.000000 0.219881 1.000000
0.000000 0.498256 1.000000
0.244251 0.492005 1.000000
0.545235 0.485755 1.000000
0.846219 0.479504 1.000000
1.000000 0.473254 1.000000
0.000000 0.751629 1.000000
0.220649 0.745378 1.000000
0.521633 0.739128 1.000000
0.822617 0.732877 1.000000
1.000000 0.726627 1.000000
0.000000 1.000000 1.000000
0.197047 0.998751 1.000000
0.498032 0.992501 1.000000
0.799016 0.986250 1.000000
1.000000 0.980000 1.000000
