resources/content/packs/lut-cinematic/Teal-Orange.cube
TITLE "Teal-Orange"
LUT_3D_SIZE 9
DOMAIN_MIN 0.0 0.0 0.0
DOMAIN_MAX 1.0 1.0 1.0
0.000000 0.000000 0.015000
0.150492 0.000000 0.011652
0.300984 0.000000 0.008303
0.451476 0.000000 0.004955
0.601968 0.000000 0.001606
0.752461 0.000000 0.000000
0.902953 0.000000 0.000000
1.000000 0.000000 0.000000
1.000000 0.000000 0.000000
0.000000 0.126687 0.003736
0.138691 0.123561 0.000387
0.289183 0.120436 0.000000
0.439676 0.117311 0.000000
0.590168 0.114186 0.000000
0.740660 0.111060 0.000000
0.891152 0.107935 0.000000
1.000000 0.104810 0.000000
1.000000 0.101685 0.000000
0.000000 0.253373 0.000000
0.126891 0.250248 0.000000
0.277383 0.247123 0.000000
0.427875 0.243997 0.000000
0.578367 0.240872 0.000000
0.728859 0.237747 0.000000
0.879351 0.234622 0.000000
1.000000 0.231497 0.000000
1.000000 0.228371 0.000000
0.000000 0.380060 0.000000
0.115090 0.376934 0.000000
0.265582 0.373809 0.000000
0.416074 0.370684 0.000000
0.566566 0.367559 0.000000
0.717058 0.364434 0.000000
0.867550 0.361308 0.000000
1.000000 0.358183 0.000000
1.000000 0.355058 0.000000
0.000000 0.506746 0.000000
0.103289 0.503621 0.000000
0.253781 0.500496 0.000000
0.404273 0.497371 0.000000
0.554765 0.494245 0.000000
0.705257 0.491120 0.000000
0.855749 0.487995 0.000000
1.000000 0.484870 0.000000
1.000000 0.481744 0.000000
0.000000 0.633433 0.000000
0.091488 0.630308 0.000000
0.241980 0.627182 0.000000
0.392472 0.624057 0.000000
0.542964 0.620932 0.000000
0.693457 0.617807 0.000000
0.843949 0.614681 0.000000
0.994441 0.611556 0.000000
1.000000 0.608431 0.000000
0.000000 0.760119 0.000000
0.079687 0.756994 0.000000
0.230179 0.753869 0.000000
0.380671 0.750744 0.000000
0.531164 0.747618 0.000000
0.681656 0.744493 0.000000
0.832148 0.741368 0.000000
0.982640 0.738243 0.000000
1.000000 0.735118 0.000000
0.000000 0.886806 0.000000
0.067886 0.883681 0.000000
0.218379 0.880555 0.000000
0.368871 0.877430 0.000000
0.519363 0.874305 0.000000
0.669855 0.871180 0.000000
0.820347 0.868055 0.000000
0.970839 0.864929 0.000000
1.000000 0.861804 0.000000
0.000000 1.000000 0.000000
0.056086 1.000000 0.000000
0.206578 1.000000 0.000000
0.357070 1.000000 0.000000
0.507562 1.000000 0.000000
0.658054 0.997866 0.000000
0.808546 0.994741 0.000000
0.959038 0.991616 0.000000
1.000000 0.988491 0.000000
0.000000 0.000000 0.160863
0.149301 0.000000 0.157514
0.299793 0.000000 0.154166
0.450285 0.000000 0.150817
0.600777 0.000000 0.147469
0.751269 0.000000 0.144121
0.901761 0.000000 0.140772
1.000000 0.000000 0.137424
1.000000 0.000000 0.134075
0.000000 0.125625 0.149598
0.137500 0.122500 0.146250
0.287992 0.119375 0.142902
0.438484 0.116250 0.139553
0.588976 0.113124 0.136205
0.739468 0.109999 0.132856
0.889961 0.106874 0.129508
1.000000 0.103749 0.126159
1.000000 0.100623 0.122811
0.000000 0.252312 0.138334
0.125699 0.249187 0.134986
0.276191 0.246061 0.131637
0.426683 0.242936 0.128289
0.577176 0.239811 0.124940
0.727668 0.236686 0.121592
0.878160 0.233560 0.118243
1.000000 0.230435 0.114895
1.000000 0.227310 0.111546
0.000000 0.378998 0.127070
0.113898 0.375873 0.123721
0.264391 0.372748 0.120373
0.414883 0.369623 0.117024
0.565375 0.366497 0.113676
0.715867 0.363372 0.110327
0.866359 0.360247 0.106979
1.000000 0.357122 0.103630
1.000000 0.353997 0.100282
0.000000 0.505685 0.115805
0.102098 0.502560 0.112457
0.252590 0.499434 0.109108
0.403082 0.496309 0.105760
0.553574 0.493184 0.102411
0.704066 0.490059 0.099063
0.854558 0.486934 0.095715
1.000000 0.483808 0.092366
1.000000 0.480683 0.089018
0.000000 0.632371 0.104541
0.090297 0.629246 0.101192
0.240789 0.626121 0.097844
0.391281 0.622996 0.094495
0.541773 0.619871 0.091147
0.692265 0.616745 0.087799
0.842757 0.613620 0.084450
0.993249 0.610495 0.081102
1.000000 0.607370 0.077753
0.000000 0.759058 0.093276
0.078496 0.755933 0.089928
0.228988 0.752808 0.086580
0.379480 0.749682 0.083231
0.529972 0.746557 0.079883
0.680464 0.743432 0.076534
0.830957 0.740307 0.073186
0.981449 0.737181 0.069837
1.000000 0.734056 0.066489
0.000000 0.885745 0.082012
0.066695 0.882619 0.078664
0.217187 0.879494 0.075315
0.367679 0.876369 0.071967
0.518172 0.873244 0.068618
0.668664 0.870118 0.065270
0.819156 0.866993 0.061921
0.969648 0.863868 0.058573
1.000000 0.860743 0.055224
0.000000 1.000000 0.070748
0.054894 1.000000 0.067399
0.205386 1.000000 0.064051
0.355879 1.000000 0.060702
0.506371 0.999930 0.057354
0.656863 0.996805 0.054005
0.807355 0.993680 0.050657
0.957847 0.990555 0.047308
1.000000 0.987429 0.043960
0.000000 0.000000 0.306726
0.148110 0.000000 0.303377
0.298602 0.000000 0.300029
0.449094 0.000000 0.296680
0.599586 0.000000 0.293332
0.750078 0.000000 0.289983
0.900570 0.000000 0.286635
1.000000 0.000000 0.283287
1.000000 0.000000 0.279938
0.000000 0.124564 0.295461
0.136309 0.121439 0.292113
0.286801 0.118313 0.288764
0.437293 0.115188 0.285416
0.587785 0.112063 0.282068
0.738277 0.108938 0.278719
0.888769 0.105813 0.275371
1.000000 0.102687 0.272022
1.000000 0.099562 0.268674
0.000000 0.251250 0.284197
0.124508 0.248125 0.280848
0.275000 0.245000 0.277500
0.425492 0.241875 0.274152
0.575984 0.238750 0.270803
0.726476 0.235624 0.267455
0.876968 0.232499 0.264106
1.000000 0.229374 0.260758
1.000000 0.226249 0.257409
0.000000 0.377937 0.272933
0.112707 0.374812 0.269584
0.263199 0.371687 0.266236
0.413691 0.368561 0.262887
0.564183 0.365436 0.259539
0.714676 0.362311 0.256190
0.865168 0.359186 0.252842
1.000000 0.356060 0.249493
1.000000 0.352935 0.246145
0.000000 0.504624 0.261668
0.100906 0.501498 0.258320
0.251398 0.498373 0.254971
0.401891 0.495248 0.251623
0.552383 0.492123 0.248274
0.702875 0.488997 0.244926
0.853367 0.485872 0.241577
1.000000 0.482747 0.238229
1.000000 0.479622 0.234880
0.000000 0.631310 0.250404
0.089105 0.628185 0.247055
0.239598 0.625060 0.243707
0.390090 0.621934 0.240358
0.540582 0.618809 0.237010
0.691074 0.615684 0.233661
0.841566 0.612559 0.230313
0.992058 0.609434 0.226965
1.000000 0.606308 0.223616
0.000000 0.757997 0.239139
0.077305 0.754871 0.235791
0.227797 0.751746 0.232442
0.378289 0.748621 0.229094
0.528781 0.745496 0.225745
0.679273 0.742371 0.222397
0.829765 0.739245 0.219049
0.980257 0.736120 0.215700
1.000000 0.732995 0.212352
0.000000 0.884683 0.227875
0.065504 0.881558 0.224526
0.215996 0.878433 0.221178
0.366488 0.875308 0.217830
0.516980 0.872182 0.214481
0.667472 0.869057 0.211133
0.817964 0.865932 0.207784
0.968457 0.862807 0.204436
1.000000 0.859681 0.201087
0.000000 1.000000 0.216610
0.053703 1.000000 0.213262
0.204195 1.000000 0.209914
0.354687 1.000000 0.206565
0.505179 0.998869 0.203217
0.655671 0.995744 0.199868
0.806164 0.992618 0.196520
0.956656 0.989493 0.193171
1.000000 0.986368 0.189823
0.000000 0.000000 0.452589
0.146918 0.000000 0.449240
0.297410 0.000000 0.445892
0.447902 0.000000 0.442543
0.598395 0.000000 0.439195
0.748887 0.000000 0.435846
0.899379 0.000000 0.432498
1.000000 0.000000 0.429149
1.000000 0.000000 0.425801
0.000000 0.123503 0.441324
0.135117 0.120377 0.437976
0.285610 0.117252 0.434627
0.436102 0.114127 0.431279
0.586594 0.111002 0.427930
0.737086 0.107876 0.424582
0.887578 0.104751 0.421233
1.000000 0.101626 0.417885
1.000000 0.098501 0.414537
0.000000 0.250189 0.430060
0.123317 0.247064 0.426711
0.273809 0.243939 0.423363
0.424301 0.240813 0.420014
0.574793 0.237688 0.416666
0.725285 0.234563 0.413318
0.875777 0.231438 0.409969
1.000000 0.228313 0.406621
1.000000 0.225187 0.403272
0.000000 0.376876 0.418795
0.111516 0.373750 0.415447
0.262008 0.370625 0.412098
0.412500 0.367500 0.408750
0.562992 0.364375 0.405402
0.713484 0.361250 0.402053
0.863976 0.358124 0.398705
1.000000 0.354999 0.395356
1.000000 0.351874 0.392008
0.000000 0.503562 0.407531
0.099715 0.500437 0.404183
0.250207 0.497312 0.400834
0.400699 0.494187 0.397486
0.551191 0.491061 0.394137
0.701683 0.487936 0.390789
0.852176 0.484811 0.387440
1.000000 0.481686 0.384092
1.000000 0.478560 0.380743
0.000000 0.630249 0.396267
0.087914 0.627124 0.392918
0.238406 0.623998 0.389570
0.388898 0.620873 0.386221
0.539390 0.617748 0.382873
0.689883 0.614623 0.379524
0.840375 0.611497 0.376176
0.990867 0.608372 0.372827
1.000000 0.605247 0.369479
0.000000 0.756935 0.385002
0.076113 0.753810 0.381654
0.226605 0.750685 0.378305
0.377098 0.747560 0.374957
0.527590 0.744434 0.371608
0.678082 0.741309 0.368260
0.828574 0.738184 0.364911
0.979066 0.735059 0.361563
1.000000 0.731934 0.358215
0.000000 0.883622 0.373738
0.064313 0.880497 0.370389
0.214805 0.877371 0.367041
0.365297 0.874246 0.363692
0.515789 0.871121 0.360344
0.666281 0.867996 0.356995
0.816773 0.864871 0.353647
0.967265 0.861745 0.350299
1.000000 0.858620 0.346950
0.000000 1.000000 0.362473
0.052512 1.000000 0.359125
0.203004 1.000000 0.355776
0.353496 1.000000 0.352428
0.503988 0.997808 0.349080
0.654480 0.994682 0.345731
0.804972 0.991557 0.342383
0.955464 0.988432 0.339034
1.000000 0.985307 0.335686
0.000000 0.000000 0.598451
0.145727 0.000000 0.595103
0.296219 0.000000 0.591755
0.446711 0.000000 0.588406
0.597203 0.000000 0.585058
0.747695 0.000000 0.581709
0.898187 0.000000 0.578361
1.000000 0.000000 0.575012
1.000000 0.000000 0.571664
0.000000 0.122441 0.587187
0.133926 0.119316 0.583839
0.284418 0.116191 0.580490
0.434910 0.113066 0.577142
0.585402 0.109940 0.573793
0.735895 0.106815 0.570445
0.886387 0.103690 0.567096
1.000000 0.100565 0.563748
1.000000 0.097439 0.560399
0.000000 0.249128 0.575923
0.122125 0.246003 0.572574
0.272617 0.242877 0.569226
0.423110 0.239752 0.565877
0.573602 0.236627 0.562529
0.724094 0.233502 0.559180
0.874586 0.230376 0.555832
1.000000 0.227251 0.552483
1.000000 0.224126 0.549135
0.000000 0.375814 0.564658
0.110324 0.372689 0.561310
0.260817 0.369564 0.557961
0.411309 0.366439 0.554613
0.561801 0.363313 0.551264
0.712293 0.360188 0.547916
0.862785 0.357063 0.544567
1.000000 0.353938 0.541219
1.000000 0.350813 0.537871
0.000000 0.502501 0.553394
0.098524 0.499376 0.550045
0.249016 0.496250 0.546697
0.399508 0.493125 0.543348
0.550000 0.490000 0.540000
0.700492 0.486875 0.536652
0.850984 0.483750 0.533303
1.000000 0.480624 0.529955
1.000000 0.477499 0.526606
0.000000 0.629187 0.542129
0.086723 0.626062 0.538781
0.237215 0.622937 0.535432
0.387707 0.619812 0.532084
0.538199 0.616687 0.528736
0.688691 0.613561 0.525387
0.839183 0.610436 0.522039
0.989676 0.607311 0.518690
1.000000 0.604186 0.515342
0.000000 0.755874 0.530865
0.074922 0.752749 0.527517
0.225414 0.749624 0.524168
0.375906 0.746498 0.520820
0.526398 0.743373 0.517471
0.676891 0.740248 0.514123
0.827383 0.737123 0.510774
0.977875 0.733997 0.507426
1.000000 0.730872 0.504077
0.000000 0.882561 0.519601
0.063121 0.879435 0.516252
0.213613 0.876310 0.512904
0.364105 0.873185 0.509555
0.514598 0.870060 0.506207
0.665090 0.866934 0.502858
0.815582 0.863809 0.499510
0.966074 0.860684 0.496161
1.000000 0.857559 0.492813
0.000000 1.000000 0.508336
0.051320 1.000000 0.504988
0.201813 1.000000 0.501639
0.352305 0.999871 0.498291
0.502797 0.996746 0.494942
0.653289 0.993621 0.491594
0.803781 0.990496 0.488245
0.954273 0.987371 0.484897
1.000000 0.984245 0.481549
0.000000 0.000000 0.744314
0.144536 0.000000 0.740966
0.295028 0.000000 0.737617
0.445520 0.000000 0.734269
0.596012 0.000000 0.730920
0.746504 0.000000 0.727572
0.896996 0.000000 0.724224
1.000000 0.000000 0.720875
1.000000 0.000000 0.717527
0.000000 0.121380 0.733050
0.132735 0.118255 0.729701
0.283227 0.115129 0.726353
0.433719 0.112004 0.723005
0.584211 0.108879 0.719656
0.734703 0.105754 0.716308
0.885195 0.102629 0.712959
1.000000 0.099503 0.709611
1.000000 0.096378 0.706262
0.000000 0.248066 0.721785
0.120934 0.244941 0.718437
0.271426 0.241816 0.715089
0.421918 0.238691 0.711740
0.572410 0.235566 0.708392
0.722902 0.232440 0.705043
0.873395 0.229315 0.701695
1.000000 0.226190 0.698346
1.000000 0.223065 0.694998
0.000000 0.374753 0.710521
0.109133 0.371628 0.707173
0.259625 0.368503 0.703824
0.410117 0.365377 0.700476
0.560610 0.362252 0.697127
0.711102 0.359127 0.693779
0.861594 0.356002 0.690430
1.000000 0.352876 0.687082
1.000000 0.349751 0.683733
0.000000 0.501440 0.699257
0.097332 0.498314 0.695908
0.247825 0.495189 0.692560
0.398317 0.492064 0.689211
0.548809 0.488939 0.685863
0.699301 0.485813 0.682514
0.849793 0.482688 0.679166
1.000000 0.479563 0.675817
1.000000 0.476438 0.672469
0.000000 0.628126 0.687992
0.085532 0.625001 0.684644
0.236024 0.621876 0.681295
0.386516 0.618750 0.677947
0.537008 0.615625 0.674598
0.687500 0.612500 0.671250
0.837992 0.609375 0.667902
0.988484 0.606250 0.664553
1.000000 0.603124 0.661205
0.000000 0.754813 0.676728
0.073731 0.751687 0.673379
0.224223 0.748562 0.670031
0.374715 0.745437 0.666683
0.525207 0.742312 0.663334
0.675699 0.739187 0.659986
0.826191 0.736061 0.656637
0.976683 0.732936 0.653289
1.000000 0.729811 0.649940
0.000000 0.881499 0.665463
0.061930 0.878374 0.662115
0.212422 0.875249 0.658767
0.362914 0.872124 0.655418
0.513406 0.868998 0.652070
0.663898 0.865873 0.648721
0.814391 0.862748 0.645373
0.964883 0.859623 0.642024
1.000000 0.856497 0.638676
0.000000 1.000000 0.654199
0.050129 1.000000 0.650851
0.200621 1.000000 0.647502
0.351113 0.998810 0.644154
0.501606 0.995685 0.640805
0.652098 0.992560 0.637457
0.802590 0.989434 0.634108
0.953082 0.986309 0.630760
1.000000 0.983184 0.627411
0.000000 0.000000 0.890177
0.143344 0.000000 0.886829
0.293836 0.000000 0.883480
0.444329 0.000000 0.880132
0.594821 0.000000 0.876783
0.745313 0.000000 0.873435
0.895805 0.000000 0.870086
1.000000 0.000000 0.866738
1.000000 0.000000 0.863390
0.000000 0.120319 0.878913
0.131544 0.117193 0.875564
0.282036 0.114068 0.872216
0.432528 0.110943 0.868867
0.583020 0.107818 0.865519
0.733512 0.104692 0.862170
0.884004 0.101567 0.858822
1.000000 0.098442 0.855474
1.000000 0.095317 0.852125
0.000000 0.247005 0.867648
0.119743 0.243880 0.864300
0.270235 0.240755 0.860951
0.420727 0.237629 0.857603
0.571219 0.234504 0.854255
0.721711 0.231379 0.850906
0.872203 0.228254 0.847558
1.000000 0.225129 0.844209
1.000000 0.222003 0.840861
0.000000 0.373692 0.856384
0.107942 0.370566 0.853035
0.258434 0.367441 0.849687
0.408926 0.364316 0.846339
0.559418 0.361191 0.842990
0.709910 0.358066 0.839642
0.860402 0.354940 0.836293
1.000000 0.351815 0.832945
1.000000 0.348690 0.829596
0.000000 0.500378 0.845120
0.096141 0.497253 0.841771
0.246633 0.494128 0.838423
0.397125 0.491003 0.835074
0.547617 0.487877 0.831726
0.698110 0.484752 0.828377
0.848602 0.481627 0.825029
0.999094 0.478502 0.821680
1.000000 0.475376 0.818332
0.000000 0.627065 0.833855
0.084340 0.623940 0.830507
0.234832 0.620814 0.827158
0.385325 0.617689 0.823810
0.535817 0.614564 0.820461
0.686309 0.611439 0.817113
0.836801 0.608313 0.813764
0.987293 0.605188 0.810416
1.000000 0.602063 0.807068
0.000000 0.753751 0.822591
0.072539 0.750626 0.819242
0.223032 0.747501 0.815894
0.373524 0.744376 0.812545
0.524016 0.741250 0.809197
0.674508 0.738125 0.805848
0.825000 0.735000 0.802500
0.975492 0.731875 0.799152
1.000000 0.728750 0.795803
0.000000 0.880438 0.811326
0.060739 0.877313 0.807978
0.211231 0.874187 0.804629
0.361723 0.871062 0.801281
0.512215 0.867937 0.797933
0.662707 0.864812 0.794584
0.813199 0.861687 0.791236
0.963691 0.858561 0.787887
1.000000 0.855436 0.784539
0.000000 1.000000 0.800062
0.048938 1.000000 0.796713
0.199430 1.000000 0.793365
0.349922 0.997749 0.790017
0.500414 0.994624 0.786668
0.650906 0.991498 0.783320
0.801398 0.988373 0.779971
0.951891 0.985248 0.776623
1.000000 0.982123 0.773274
0.000000 0.000000 1.000000
0.142153 0.000000 1.000000
0.292645 0.000000 1.000000
0.443137 0.000000 1.000000
0.593629 0.000000 1.000000
0.744121 0.000000 1.000000
0.894614 0.000000 1.000000
1.000000 0.000000 1.000000
1.000000 0.000000 1.000000
0.000000 0.119257 1.000000
0.130352 0.116132 1.000000
0.280844 0.113007 1.000000
0.431336 0.109882 1.000000
0.581829 0.106756 1.000000
0.732321 0.103631 1.000000
0.882813 0.100506 1.000000
1.000000 0.097381 1.000000
1.000000 0.094255 0.997988
0.000000 0.245944 1.000000
0.118551 0.242819 1.000000
0.269043 0.239693 1.000000
0.419536 0.236568 1.000000
0.570028 0.233443 1.000000
0.720520 0.230318 0.996769
0.871012 0.227192 0.993420
1.000000 0.224067 0.990072
1.000000 0.220942 0.986724
0.000000 0.372630 1.000000
0.106751 0.369505 0.998898
0.257243 0.366380 0.995550
0.407735 0.363255 0.992201
0.558227 0.360129 0.988853
0.708719 0.357004 0.985505
0.859211 0.353879 0.982156
1.000000 0.350754 0.978808
1.000000 0.347629 0.975459
0.000000 0.499317 0.990982
0.094950 0.496192 0.987634
0.245442 0.493066 0.984285
0.395934 0.489941 0.980937
0.546426 0.486816 0.977589
0.696918 0.483691 0.974240
0.847410 0.480566 0.970892
0.997902 0.477440 0.967543
1.000000 0.474315 0.964195
0.000000 0.626003 0.979718
0.083149 0.622878 0.976370
0.233641 0.619753 0.973021
0.384133 0.616628 0.969673
0.534625 0.613503 0.966324
0.685117 0.610377 0.962976
0.835610 0.607252 0.959627
0.986102 0.604127 0.956279
1.000000 0.601002 0.952930
0.000000 0.752690 0.968454
0.071348 0.749565 0.965105
0.221840 0.746440 0.961757
0.372332 0.743314 0.958408
0.522825 0.740189 0.955060
0.673317 0.737064 0.951711
0.823809 0.733939 0.948363
0.974301 0.730813 0.945014
1.000000 0.727688 0.941666
0.000000 0.879377 0.957189
0.059547 0.876251 0.953841
0.210039 0.873126 0.950492
0.360532 0.870001 0.947144
0.511024 0.866876 0.943795
0.661516 0.863750 0.940447
0.812008 0.860625 0.937098
0.962500 0.857500 0.933750
1.000000 0.854375 0.930402
0.000000 1.000000 0.945925
0.047747 1.000000 0.942576
0.198239 0.999813 0.939228
0.348731 0.996687 0.935879
0.499223 0.993562 0.932531
0.649715 0.990437 0.929183
0.800207 0.987312 0.925834
0.950699 0.984187 0.922486
1.000000 0.981061 0.919137
0.000000 0.000000 1.000000
0.140962 0.000000 1.000000
0.291454 0.000000 1.000000
0.441946 0.000000 1.000000
0.592438 0.000000 1.000000
0.742930 0.000000 1.000000
0.893422 0.000000 1.000000
1.000000 0.000000 1.000000
1.000000 0.000000 1.000000
0.000000 0.118196 1.000000
0.129161 0.115071 1.000000
0.279653 0.111945 1.000000
0.430145 0.108820 1.000000
0.580637 0.105695 1.000000
0.731129 0.102570 1.000000
0.881621 0.099445 1.000000
1.000000 0.096319 1.000000
1.000000 0.093194 1.000000
0.000000 0.244882 1.000000
0.117360 0.241757 1.000000
0.267852 0.238632 1.000000
0.418344 0.235507 1.000000
0.568836 0.232382 1.000000
0.719329 0.229256 1.000000
0.869821 0.226131 1.000000
1.000000 0.223006 1.000000
1.000000 0.219881 1.000000
0.000000 0.371569 1.000000
0.105559 0.368444 1.000000
0.256051 0.365319 1.000000
0.406544 0.362193 1.000000
0.557036 0.359068 1.000000
0.707528 0.355943 1.000000
0.858020 0.352818 1.000000
1.000000 0.349692 1.000000
1.000000 0.346567 1.000000
0.000000 0.498256 1.000000
0.093758 0.495130 1.000000
0.244251 0.492005 1.000000
0.394743 0.488880 1.000000
0.545235 0.485755 1.000000
0.695727 0.482629 1.000000
0.846219 0.479504 1.000000
0.996711 0.476379 1.000000
1.000000 0.473254 1.000000
0.000000 0.624942 1.000000
0.081958 0.621817 1.000000
0.232450 0.618692 1.000000
0.382942 0.615566 1.000000
0.533434 0.612441 1.000000
0.683926 0.609316 1.000000
0.834418 0.606191 1.000000
0.984910 0.603066 1.000000
1.000000 0.599940 1.000000
0.000000 0.751629 1.000000
0.070157 0.748503 1.000000
0.220649 0.745378 1.000000
0.371141 0.742253 1.000000
0.521633 0.739128 1.000000
0.672125 0.736003 1.000000
0.822617 0.732877 1.000000
0.973110 0.729752 1.000000
1.000000 0.726627 1.000000
0.000000 0.878315 1.000000
0.058356 0.875190 1.000000
0.208848 0.872065 1.000000
0.359340 0.868940 1.000000
0.509832 0.865814 1.000000
0.660325 0.862689 1.000000
0.810817 0.859564 1.000000
0.961309 0.856439 1.000000
1.000000 0.853313 1.000000
0.000000 1.000000 1.000000
0.046555 1.000000 1.000000
0.197047 0.998751 1.000000
0.347539 0.995626 1.000000
0.498032 0.992501 1.000000
0.648524 0.989376 1.000000
0.799016 0.986250 1.000000
0.949508 0.983125 1.000000
1.000000 0.980000 1.000000
