resources/content/packs/lut-cinematic/Teal-Orange.cube
TITLE "Teal-Orange"
LUT_3D_SIZE 33
DOMAIN_MIN 0.0 0.0 0.0
DOMAIN_MAX 1.0 1.0 1.0
0.000000 0.000000 0.015000
0.037623 0.000000 0.014163
0.075246 0.000000 0.013326
0.112869 0.000000 0.012489
0.150492 0.000000 0.011652
0.188115 0.000000 0.010814
0.225738 0.000000 0.009977
0.263361 0.000000 0.009140
0.300984 0.000000 0.008303
0.338607 0.000000 0.007466
0.376230 0.000000 0.006629
0.413853 0.000000 0.005792
0.451476 0.000000 0.004955
0.489099 0.000000 0.004118
0.526722 0.000000 0.003280
0.564345 0.000000 0.002443
0.601968 0.000000 0.001606
0.639591 0.000000 0.000769
0.677214 0.000000 0.000000
0.714837 0.000000 0.000000
0.752461 0.000000 0.000000
0.790084 0.000000 0.000000
0.827707 0.000000 0.000000
0.865330 0.000000 0.000000
0.902953 0.000000 0.000000
0.940576 0.000000 0.000000
0.978199 0.000000 0.000000
1.000000 0.000000 0.000000
1.000000 0.000000 0.000000
1.000000 0.000000 0.000000
1.000000 0.000000 0.000000
1.000000 0.000000 0.000000
1.000000 0.000000 0.000000
0.000000 0.031672 0.012184
0.034673 0.030890 0.011347
0.072296 0.030109 0.010510
0.109919 0.029328 0.009673
0.147542 0.028546 0.008835
0.185165 0.027765 0.007998
0.222788 0.026984 0.007161
0.260411 0.026203 0.006324
0.298034 0.025421 0.005487
0.335657 0.024640 0.004650
0.373280 0.023859 0.003813
0.410903 0.023077 0.002976
0.448526 0.022296 0.002139
0.486149 0.021515 0.001301
0.523772 0.020733 0.000464
0.561395 0.019952 0.000000
0.599018 0.019171 0.000000
0.636641 0.018389 0.000000
0.674264 0.017608 0.000000
0.711887 0.016827 0.000000
0.749510 0.016046 0.000000
0.787133 0.015264 0.000000
0.824756 0.014483 0.000000
0.862379 0.013702 0.000000
0.900002 0.012920 0.000000
0.937625 0.012139 0.000000
0.975248 0.011358 0.000000
1.000000 0.010576 0.000000
1.000000 0.009795 0.000000
1.000000 0.009014 0.000000
1.000000 0.008232 0.000000
1.000000 0.007451 0.000000
1.000000 0.006670 0.000000
0.000000 0.063343 0.009368
0.031723 0.062562 0.008531
0.069346 0.061781 0.007694
0.106969 0.060999 0.006856
0.144592 0.060218 0.006019
0.182215 0.059437 0.005182
0.219838 0.058655 0.004345
0.257461 0.057874 0.003508
0.295084 0.057093 0.002671
0.332707 0.056312 0.001834
0.370330 0.055530 0.000997
0.407953 0.054749 0.000160
0.445576 0.053968 0.000000
0.483199 0.053186 0.000000
0.520822 0.052405 0.000000
0.558445 0.051624 0.000000
0.596068 0.050842 0.000000
0.633691 0.050061 0.000000
0.671314 0.049280 0.000000
0.708937 0.048498 0.000000
0.746560 0.047717 0.000000
0.784183 0.046936 0.000000
0.821806 0.046155 0.000000
0.859429 0.045373 0.000000
0.897052 0.044592 0.000000
0.934675 0.043811 0.000000
0.972298 0.043029 0.000000
1.000000 0.042248 0.000000
1.000000 0.041467 0.000000
1.000000 0.040685 0.000000
1.000000 0.039904 0.000000
1.000000 0.039123 0.000000
1.000000 0.038342 0.000000
0.000000 0.095015 0.006552
0.028772 0.094234 0.005715
0.066395 0.093452 0.004877
0.104018 0.092671 0.004040
0.141642 0.091890 0.003203
0.179265 0.091108 0.002366
0.216888 0.090327 0.001529
0.254511 0.089546 0.000692
0.292134 0.088764 0.000000
0.329757 0.087983 0.000000
0.367380 0.087202 0.000000
0.405003 0.086421 0.000000
0.442626 0.085639 0.000000
0.480249 0.084858 0.000000
0.517872 0.084077 0.000000
0.555495 0.083295 0.000000
0.593118 0.082514 0.000000
0.630741 0.081733 0.000000
0.668364 0.080951 0.000000
0.705987 0.080170 0.000000
0.743610 0.079389 0.000000
0.781233 0.078608 0.000000
0.818856 0.077826 0.000000
0.856479 0.077045 0.000000
0.894102 0.076264 0.000000
0.931725 0.075482 0.000000
0.969348 0.074701 0.000000
1.000000 0.073920 0.000000
1.000000 0.073138 0.000000
1.000000 0.072357 0.000000
1.000000 0.071576 0.000000
1.000000 0.070794 0.000000
1.000000 0.070013 0.000000
0.000000 0.126687 0.003736
0.025822 0.125905 0.002898
0.063445 0.125124 0.002061
0.101068 0.124343 0.001224
0.138691 0.123561 0.000387
0.176314 0.122780 0.000000
0.213937 0.121999 0.000000
0.251560 0.121217 0.000000
0.289183 0.120436 0.000000
0.326806 0.119655 0.000000
0.364429 0.118874 0.000000
0.402052 0.118092 0.000000
0.439676 0.117311 0.000000
0.477299 0.116530 0.000000
0.514922 0.115748 0.000000
0.552545 0.114967 0.000000
0.590168 0.114186 0.000000
0.627791 0.113404 0.000000
0.665414 0.112623 0.000000
0.703037 0.111842 0.000000
0.740660 0.111060 0.000000
0.778283 0.110279 0.000000
0.815906 0.109498 0.000000
0.853529 0.108717 0.000000
0.891152 0.107935 0.000000
0.928775 0.107154 0.000000
0.966398 0.106373 0.000000
1.000000 0.105591 0.000000
1.000000 0.104810 0.000000
1.000000 0.104029 0.000000
1.000000 0.103247 0.000000
1.000000 0.102466 0.000000
1.000000 0.101685 0.000000
0.000000 0.158358 0.000919
0.022872 0.157577 0.000082
0.060495 0.156796 0.000000
0.098118 0.156014 0.000000
0.135741 0.155233 0.000000
0.173364 0.154452 0.000000
0.210987 0.153670 0.000000
0.248610 0.152889 0.000000
0.286233 0.152108 0.000000
0.323856 0.151326 0.000000
0.361479 0.150545 0.000000
0.399102 0.149764 0.000000
0.436725 0.148983 0.000000
0.474348 0.148201 0.000000
0.511971 0.147420 0.000000
0.549594 0.146639 0.000000
0.587217 0.145857 0.000000
0.624840 0.145076 0.000000
0.662463 0.144295 0.000000
0.700086 0.143513 0.000000
0.737710 0.142732 0.000000
0.775333 0.141951 0.000000
0.812956 0.141169 0.000000
0.850579 0.140388 0.000000
0.888202 0.139607 0.000000
0.925825 0.138826 0.000000
0.963448 0.138044 0.000000
1.000000 0.137263 0.000000
1.000000 0.136482 0.000000
1.000000 0.135700 0.000000
1.000000 0.134919 0.000000
1.000000 0.134138 0.000000
1.000000 0.133356 0.000000
0.000000 0.190030 0.000000
0.019922 0.189249 0.000000
0.057545 0.188467 0.000000
0.095168 0.187686 0.000000
0.132791 0.186905 0.000000
0.170414 0.186123 0.000000
0.208037 0.185342 0.000000
0.245660 0.184561 0.000000
0.283283 0.183779 0.000000
0.320906 0.182998 0.000000
0.358529 0.182217 0.000000
0.396152 0.181435 0.000000
0.433775 0.180654 0.000000
0.471398 0.179873 0.000000
0.509021 0.179092 0.000000
0.546644 0.178310 0.000000
0.584267 0.177529 0.000000
0.621890 0.176748 0.000000
0.659513 0.175966 0.000000
0.697136 0.175185 0.000000
0.734759 0.174404 0.000000
0.772382 0.173622 0.000000
0.810005 0.172841 0.000000
0.847628 0.172060 0.000000
0.885251 0.171279 0.000000
0.922874 0.170497 0.000000
0.960497 0.169716 0.000000
0.998120 0.168935 0.000000
1.000000 0.168153 0.000000
1.000000 0.167372 0.000000
1.000000 0.166591 0.000000
1.000000 0.165809 0.000000
1.000000 0.165028 0.000000
0.000000 0.221701 0.000000
0.016972 0.220920 0.000000
0.054595 0.220139 0.000000
0.092218 0.219358 0.000000
0.129841 0.218576 0.000000
0.167464 0.217795 0.000000
0.205087 0.217014 0.000000
0.242710 0.216232 0.000000
0.280333 0.215451 0.000000
0.317956 0.214670 0.000000
0.355579 0.213888 0.000000
0.393202 0.213107 0.000000
0.430825 0.212326 0.000000
0.468448 0.211545 0.000000
0.506071 0.210763 0.000000
0.543694 0.209982 0.000000
0.581317 0.209201 0.000000
0.618940 0.208419 0.000000
0.656563 0.207638 0.000000
0.694186 0.206857 0.000000
0.731809 0.206075 0.000000
0.769432 0.205294 0.000000
0.807055 0.204513 0.000000
0.844678 0.203731 0.000000
0.882301 0.202950 0.000000
0.919924 0.202169 0.000000
0.957547 0.201388 0.000000
0.995170 0.200606 0.000000
1.000000 0.199825 0.000000
1.000000 0.199044 0.000000
1.000000 0.198262 0.000000
1.000000 0.197481 0.000000
1.000000 0.196700 0.000000
0.000000 0.253373 0.000000
0.014021 0.252592 0.000000
0.051644 0.251811 0.000000
0.089267 0.251029 0.000000
0.126891 0.250248 0.000000
0.164514 0.249467 0.000000
0.202137 0.248685 0.000000
0.239760 0.247904 0.000000
0.277383 0.247123 0.000000
0.315006 0.246341 0.000000
0.352629 0.245560 0.000000
0.390252 0.244779 0.000000
0.427875 0.243997 0.000000
0.465498 0.243216 0.000000
0.503121 0.242435 0.000000
0.540744 0.241654 0.000000
0.578367 0.240872 0.000000
0.615990 0.240091 0.000000
0.653613 0.239310 0.000000
0.691236 0.238528 0.000000
0.728859 0.237747 0.000000
0.766482 0.236966 0.000000
0.804105 0.236184 0.000000
0.841728 0.235403 0.000000
0.879351 0.234622 0.000000
0.916974 0.233840 0.000000
0.954597 0.233059 0.000000
0.992220 0.232278 0.000000
1.000000 0.231497 0.000000
1.000000 0.230715 0.000000
1.000000 0.229934 0.000000
1.000000 0.229153 0.000000
1.000000 0.228371 0.000000
0.000000 0.285045 0.000000
0.011071 0.284263 0.000000
0.048694 0.283482 0.000000
0.086317 0.282701 0.000000
0.123940 0.281920 0.000000
0.161563 0.281138 0.000000
0.199186 0.280357 0.000000
0.236809 0.279576 0.000000
0.274432 0.278794 0.000000
0.312055 0.278013 0.000000
0.349678 0.277232 0.000000
0.387301 0.276450 0.000000
0.424925 0.275669 0.000000
0.462548 0.274888 0.000000
0.500171 0.274106 0.000000
0.537794 0.273325 0.000000
0.575417 0.272544 0.000000
0.613040 0.271763 0.000000
0.650663 0.270981 0.000000
0.688286 0.270200 0.000000
0.725909 0.269419 0.000000
0.763532 0.268637 0.000000
0.801155 0.267856 0.000000
0.838778 0.267075 0.000000
0.876401 0.266293 0.000000
0.914024 0.265512 0.000000
0.951647 0.264731 0.000000
0.989270 0.263950 0.000000
1.000000 0.263168 0.000000
1.000000 0.262387 0.000000
1.000000 0.261606 0.000000
1.000000 0.260824 0.000000
1.000000 0.260043 0.000000
0.000000 0.316716 0.000000
0.008121 0.315935 0.000000
0.045744 0.315154 0.000000
0.083367 0.314372 0.000000
0.120990 0.313591 0.000000
0.158613 0.312810 0.000000
0.196236 0.312029 0.000000
0.233859 0.311247 0.000000
0.271482 0.310466 0.000000
0.309105 0.309685 0.000000
0.346728 0.308903 0.000000
0.384351 0.308122 0.000000
0.421974 0.307341 0.000000
0.459597 0.306559 0.000000
0.497220 0.305778 0.000000
0.534843 0.304997 0.000000
0.572466 0.304216 0.000000
0.610089 0.303434 0.000000
0.647712 0.302653 0.000000
0.685335 0.301872 0.000000
0.722959 0.301090 0.000000
0.760582 0.300309 0.000000
0.798205 0.299528 0.000000
0.835828 0.298746 0.000000
0.873451 0.297965 0.000000
0.911074 0.297184 0.000000
0.948697 0.296402 0.000000
0.986320 0.295621 0.000000
1.000000 0.294840 0.000000
1.000000 0.294059 0.000000
1.000000 0.293277 0.000000
1.000000 0.292496 0.000000
1.000000 0.291715 0.000000
0.000000 0.348388 0.000000
0.005171 0.347607 0.000000
0.042794 0.346825 0.000000
0.080417 0.346044 0.000000
0.118040 0.345263 0.000000
0.155663 0.344482 0.000000
0.193286 0.343700 0.000000
0.230909 0.342919 0.000000
0.268532 0.342138 0.000000
0.306155 0.341356 0.000000
0.343778 0.340575 0.000000
0.381401 0.339794 0.000000
0.419024 0.339012 0.000000
0.456647 0.338231 0.000000
0.494270 0.337450 0.000000
0.531893 0.336668 0.000000
0.569516 0.335887 0.000000
0.607139 0.335106 0.000000
0.644762 0.334325 0.000000
0.682385 0.333543 0.000000
0.720008 0.332762 0.000000
0.757631 0.331981 0.000000
0.795254 0.331199 0.000000
0.832877 0.330418 0.000000
0.870500 0.329637 0.000000
0.908123 0.328855 0.000000
0.945746 0.328074 0.000000
0.983369 0.327293 0.000000
1.000000 0.326512 0.000000
1.000000 0.325730 0.000000
1.000000 0.324949 0.000000
1.000000 0.324168 0.000000
1.000000 0.323386 0.000000
0.000000 0.380060 0.000000
0.002221 0.379278 0.000000
0.039844 0.378497 0.000000
0.077467 0.377716 0.000000
0.115090 0.376934 0.000000
0.152713 0.376153 0.000000
0.190336 0.375372 0.000000
0.227959 0.374591 0.000000
0.265582 0.373809 0.000000
0.303205 0.373028 0.000000
0.340828 0.372247 0.000000
0.378451 0.371465 0.000000
0.416074 0.370684 0.000000
0.453697 0.369903 0.000000
0.491320 0.369121 0.000000
0.528943 0.368340 0.000000
0.566566 0.367559 0.000000
0.604189 0.366777 0.000000
0.641812 0.365996 0.000000
0.679435 0.365215 0.000000
0.717058 0.364434 0.000000
0.754681 0.363652 0.000000
0.792304 0.362871 0.000000
0.829927 0.362090 0.000000
0.867550 0.361308 0.000000
0.905173 0.360527 0.000000
0.942796 0.359746 0.000000
0.980419 0.358964 0.000000
1.000000 0.358183 0.000000
1.000000 0.357402 0.000000
1.000000 0.356621 0.000000
1.000000 0.355839 0.000000
1.000000 0.355058 0.000000
0.000000 0.411731 0.000000
0.000000 0.410950 0.000000
0.036893 0.410169 0.000000
0.074516 0.409387 0.000000
0.112139 0.408606 0.000000
0.149763 0.407825 0.000000
0.187386 0.407043 0.000000
0.225009 0.406262 0.000000
0.262632 0.405481 0.000000
0.300255 0.404700 0.000000
0.337878 0.403918 0.000000
0.375501 0.403137 0.000000
0.413124 0.402356 0.000000
0.450747 0.401574 0.000000
0.488370 0.400793 0.000000
0.525993 0.400012 0.000000
0.563616 0.399230 0.000000
0.601239 0.398449 0.000000
0.638862 0.397668 0.000000
0.676485 0.396887 0.000000
0.714108 0.396105 0.000000
0.751731 0.395324 0.000000
0.789354 0.394543 0.000000
0.826977 0.393761 0.000000
0.864600 0.392980 0.000000
0.902223 0.392199 0.000000
0.939846 0.391417 0.000000
0.977469 0.390636 0.000000
1.000000 0.389855 0.000000
1.000000 0.389073 0.000000
1.000000 0.388292 0.000000
1.000000 0.387511 0.000000
1.000000 0.386730 0.000000
0.000000 0.443403 0.000000
0.000000 0.442622 0.000000
0.033943 0.441840 0.000000
0.071566 0.441059 0.000000
0.109189 0.440278 0.000000
0.146812 0.439496 0.000000
0.184435 0.438715 0.000000
0.222058 0.437934 0.000000
0.259681 0.437153 0.000000
0.297304 0.436371 0.000000
0.334927 0.435590 0.000000
0.372550 0.434809 0.000000
0.410174 0.434027 0.000000
0.447797 0.433246 0.000000
0.485420 0.432465 0.000000
0.523043 0.431683 0.000000
0.560666 0.430902 0.000000
0.598289 0.430121 0.000000
0.635912 0.429339 0.000000
0.673535 0.428558 0.000000
0.711158 0.427777 0.000000
0.748781 0.426996 0.000000
0.786404 0.426214 0.000000
0.824027 0.425433 0.000000
0.861650 0.424652 0.000000
0.899273 0.423870 0.000000
0.936896 0.423089 0.000000
0.974519 0.422308 0.000000
1.000000 0.421526 0.000000
1.000000 0.420745 0.000000
1.000000 0.419964 0.000000
1.000000 0.419183 0.000000
1.000000 0.418401 0.000000
0.000000 0.475075 0.000000
0.000000 0.474293 0.000000
0.030993 0.473512 0.000000
0.068616 0.472731 0.000000
0.106239 0.471949 0.000000
0.143862 0.471168 0.000000
0.181485 0.470387 0.000000
0.219108 0.469605 0.000000
0.256731 0.468824 0.000000
0.294354 0.468043 0.000000
0.331977 0.467262 0.000000
0.369600 0.466480 0.000000
0.407223 0.465699 0.000000
0.444846 0.464918 0.000000
0.482469 0.464136 0.000000
0.520092 0.463355 0.000000
0.557715 0.462574 0.000000
0.595338 0.461792 0.000000
0.632961 0.461011 0.000000
0.670584 0.460230 0.000000
0.708207 0.459448 0.000000
0.745831 0.458667 0.000000
0.783454 0.457886 0.000000
0.821077 0.457105 0.000000
0.858700 0.456323 0.000000
0.896323 0.455542 0.000000
0.933946 0.454761 0.000000
0.971569 0.453979 0.000000
1.000000 0.453198 0.000000
1.000000 0.452417 0.000000
1.000000 0.451635 0.000000
1.000000 0.450854 0.000000
1.000000 0.450073 0.000000
0.000000 0.506746 0.000000
0.000000 0.505965 0.000000
0.028043 0.505184 0.000000
0.065666 0.504402 0.000000
0.103289 0.503621 0.000000
0.140912 0.502840 0.000000
0.178535 0.502058 0.000000
0.216158 0.501277 0.000000
0.253781 0.500496 0.000000
0.291404 0.499714 0.000000
0.329027 0.498933 0.000000
0.366650 0.498152 0.000000
0.404273 0.497371 0.000000
0.441896 0.496589 0.000000
0.479519 0.495808 0.000000
0.517142 0.495027 0.000000
0.554765 0.494245 0.000000
0.592388 0.493464 0.000000
0.630011 0.492683 0.000000
0.667634 0.491901 0.000000
0.705257 0.491120 0.000000
0.742880 0.490339 0.000000
0.780503 0.489558 0.000000
0.818126 0.488776 0.000000
0.855749 0.487995 0.000000
0.893372 0.487214 0.000000
0.930995 0.486432 0.000000
0.968618 0.485651 0.000000
1.000000 0.484870 0.000000
1.000000 0.484088 0.000000
1.000000 0.483307 0.000000
1.000000 0.482526 0.000000
1.000000 0.481744 0.000000
0.000000 0.538418 0.000000
0.000000 0.537637 0.000000
0.025093 0.536855 0.000000
0.062716 0.536074 0.000000
0.100339 0.535293 0.000000
0.137962 0.534511 0.000000
0.175585 0.533730 0.000000
0.213208 0.532949 0.000000
0.250831 0.532167 0.000000
0.288454 0.531386 0.000000
0.326077 0.530605 0.000000
0.363700 0.529824 0.000000
0.401323 0.529042 0.000000
0.438946 0.528261 0.000000
0.476569 0.527480 0.000000
0.514192 0.526698 0.000000
0.551815 0.525917 0.000000
0.589438 0.525136 0.000000
0.627061 0.524354 0.000000
0.664684 0.523573 0.000000
0.702307 0.522792 0.000000
0.739930 0.522010 0.000000
0.777553 0.521229 0.000000
0.815176 0.520448 0.000000
0.852799 0.519667 0.000000
0.890422 0.518885 0.000000
0.928045 0.518104 0.000000
0.965668 0.517323 0.000000
1.000000 0.516541 0.000000
1.000000 0.515760 0.000000
1.000000 0.514979 0.000000
1.000000 0.514197 0.000000
1.000000 0.513416 0.000000
0.000000 0.570090 0.000000
0.000000 0.569308 0.000000
0.022142 0.568527 0.000000
0.059765 0.567746 0.000000
0.097388 0.566964 0.000000
0.135012 0.566183 0.000000
0.172635 0.565402 0.000000
0.210258 0.564620 0.000000
0.247881 0.563839 0.000000
0.285504 0.563058 0.000000
0.323127 0.562276 0.000000
0.360750 0.561495 0.000000
0.398373 0.560714 0.000000
0.435996 0.559933 0.000000
0.473619 0.559151 0.000000
0.511242 0.558370 0.000000
0.548865 0.557589 0.000000
0.586488 0.556807 0.000000
0.624111 0.556026 0.000000
0.661734 0.555245 0.000000
0.699357 0.554463 0.000000
0.736980 0.553682 0.000000
0.774603 0.552901 0.000000
0.812226 0.552120 0.000000
0.849849 0.551338 0.000000
0.887472 0.550557 0.000000
0.925095 0.549776 0.000000
0.962718 0.548994 0.000000
1.000000 0.548213 0.000000
1.000000 0.547432 0.000000
1.000000 0.546650 0.000000
1.000000 0.545869 0.000000
1.000000 0.545088 0.000000
0.000000 0.601761 0.000000
0.000000 0.600980 0.000000
0.019192 0.600199 0.000000
0.056815 0.599417 0.000000
0.094438 0.598636 0.000000
0.132061 0.597855 0.000000
0.169684 0.597073 0.000000
0.207307 0.596292 0.000000
0.244930 0.595511 0.000000
0.282553 0.594729 0.000000
0.320176 0.593948 0.000000
0.357799 0.593167 0.000000
0.395423 0.592386 0.000000
0.433046 0.591604 0.000000
0.470669 0.590823 0.000000
0.508292 0.590042 0.000000
0.545915 0.589260 0.000000
0.583538 0.588479 0.000000
0.621161 0.587698 0.000000
0.658784 0.586916 0.000000
0.696407 0.586135 0.000000
0.734030 0.585354 0.000000
0.771653 0.584572 0.000000
0.809276 0.583791 0.000000
0.846899 0.583010 0.000000
0.884522 0.582229 0.000000
0.922145 0.581447 0.000000
0.959768 0.580666 0.000000
0.997391 0.579885 0.000000
1.000000 0.579103 0.000000
1.000000 0.578322 0.000000
1.000000 0.577541 0.000000
1.000000 0.576759 0.000000
0.000000 0.633433 0.000000
0.000000 0.632651 0.000000
0.016242 0.631870 0.000000
0.053865 0.631089 0.000000
0.091488 0.630308 0.000000
0.129111 0.629526 0.000000
0.166734 0.628745 0.000000
0.204357 0.627964 0.000000
0.241980 0.627182 0.000000
0.279603 0.626401 0.000000
0.317226 0.625620 0.000000
0.354849 0.624838 0.000000
0.392472 0.624057 0.000000
0.430095 0.623276 0.000000
0.467718 0.622495 0.000000
0.505341 0.621713 0.000000
0.542964 0.620932 0.000000
0.580587 0.620151 0.000000
0.618210 0.619369 0.000000
0.655833 0.618588 0.000000
0.693457 0.617807 0.000000
0.731080 0.617025 0.000000
0.768703 0.616244 0.000000
0.806326 0.615463 0.000000
0.843949 0.614681 0.000000
0.881572 0.613900 0.000000
0.919195 0.613119 0.000000
0.956818 0.612338 0.000000
0.994441 0.611556 0.000000
1.000000 0.610775 0.000000
1.000000 0.609994 0.000000
1.000000 0.609212 0.000000
1.000000 0.608431 0.000000
0.000000 0.665104 0.000000
0.000000 0.664323 0.000000
0.013292 0.663542 0.000000
0.050915 0.662761 0.000000
0.088538 0.661979 0.000000
0.126161 0.661198 0.000000
0.163784 0.660417 0.000000
0.201407 0.659635 0.000000
0.239030 0.658854 0.000000
0.276653 0.658073 0.000000
0.314276 0.657291 0.000000
0.351899 0.656510 0.000000
0.389522 0.655729 0.000000
0.427145 0.654947 0.000000
0.464768 0.654166 0.000000
0.502391 0.653385 0.000000
0.540014 0.652604 0.000000
0.577637 0.651822 0.000000
0.615260 0.651041 0.000000
0.652883 0.650260 0.000000
0.690506 0.649478 0.000000
0.728129 0.648697 0.000000
0.765752 0.647916 0.000000
0.803375 0.647134 0.000000
0.840998 0.646353 0.000000
0.878621 0.645572 0.000000
0.916244 0.644791 0.000000
0.953867 0.644009 0.000000
0.991491 0.643228 0.000000
1.000000 0.642447 0.000000
1.000000 0.641665 0.000000
1.000000 0.640884 0.000000
1.000000 0.640103 0.000000
0.000000 0.696776 0.000000
0.000000 0.695995 0.000000
0.010342 0.695213 0.000000
0.047965 0.694432 0.000000
0.085588 0.693651 0.000000
0.123211 0.692870 0.000000
0.160834 0.692088 0.000000
0.198457 0.691307 0.000000
0.236080 0.690526 0.000000
0.273703 0.689744 0.000000
0.311326 0.688963 0.000000
0.348949 0.688182 0.000000
0.386572 0.687400 0.000000
0.424195 0.686619 0.000000
0.461818 0.685838 0.000000
0.499441 0.685057 0.000000
0.537064 0.684275 0.000000
0.574687 0.683494 0.000000
0.612310 0.682713 0.000000
0.649933 0.681931 0.000000
0.687556 0.681150 0.000000
0.725179 0.680369 0.000000
0.762802 0.679587 0.000000
0.800425 0.678806 0.000000
0.838048 0.678025 0.000000
0.875671 0.677243 0.000000
0.913294 0.676462 0.000000
0.950917 0.675681 0.000000
0.988540 0.674900 0.000000
1.000000 0.674118 0.000000
1.000000 0.673337 0.000000
1.000000 0.672556 0.000000
1.000000 0.671774 0.000000
0.000000 0.728448 0.000000
0.000000 0.727666 0.000000
0.007391 0.726885 0.000000
0.045014 0.726104 0.000000
0.082637 0.725322 0.000000
0.120261 0.724541 0.000000
0.157884 0.723760 0.000000
0.195507 0.722979 0.000000
0.233130 0.722197 0.000000
0.270753 0.721416 0.000000
0.308376 0.720635 0.000000
0.345999 0.719853 0.000000
0.383622 0.719072 0.000000
0.421245 0.718291 0.000000
0.458868 0.717509 0.000000
0.496491 0.716728 0.000000
0.534114 0.715947 0.000000
0.571737 0.715166 0.000000
0.609360 0.714384 0.000000
0.646983 0.713603 0.000000
0.684606 0.712822 0.000000
0.722229 0.712040 0.000000
0.759852 0.711259 0.000000
0.797475 0.710478 0.000000
0.835098 0.709696 0.000000
0.872721 0.708915 0.000000
0.910344 0.708134 0.000000
0.947967 0.707352 0.000000
0.985590 0.706571 0.000000
1.000000 0.705790 0.000000
1.000000 0.705009 0.000000
1.000000 0.704227 0.000000
1.000000 0.703446 0.000000
0.000000 0.760119 0.000000
0.000000 0.759338 0.000000
0.004441 0.758557 0.000000
0.042064 0.757775 0.000000
0.079687 0.756994 0.000000
0.117310 0.756213 0.000000
0.154933 0.755432 0.000000
0.192556 0.754650 0.000000
0.230179 0.753869 0.000000
0.267802 0.753088 0.000000
0.305425 0.752306 0.000000
0.343048 0.751525 0.000000
0.380671 0.750744 0.000000
0.418295 0.749962 0.000000
0.455918 0.749181 0.000000
0.493541 0.748400 0.000000
0.531164 0.747618 0.000000
0.568787 0.746837 0.000000
0.606410 0.746056 0.000000
0.644033 0.745275 0.000000
0.681656 0.744493 0.000000
0.719279 0.743712 0.000000
0.756902 0.742931 0.000000
0.794525 0.742149 0.000000
0.832148 0.741368 0.000000
0.869771 0.740587 0.000000
0.907394 0.739805 0.000000
0.945017 0.739024 0.000000
0.982640 0.738243 0.000000
1.000000 0.737462 0.000000
1.000000 0.736680 0.000000
1.000000 0.735899 0.000000
1.000000 0.735118 0.000000
0.000000 0.791791 0.000000
0.000000 0.791010 0.000000
0.001491 0.790228 0.000000
0.039114 0.789447 0.000000
0.076737 0.788666 0.000000
0.114360 0.787884 0.000000
0.151983 0.787103 0.000000
0.189606 0.786322 0.000000
0.227229 0.785541 0.000000
0.264852 0.784759 0.000000
0.302475 0.783978 0.000000
0.340098 0.783197 0.000000
0.377721 0.782415 0.000000
0.415344 0.781634 0.000000
0.452967 0.780853 0.000000
0.490590 0.780071 0.000000
0.528213 0.779290 0.000000
0.565836 0.778509 0.000000
0.603459 0.777728 0.000000
0.641082 0.776946 0.000000
0.678706 0.776165 0.000000
0.716329 0.775384 0.000000
0.753952 0.774602 0.000000
0.791575 0.773821 0.000000
0.829198 0.773040 0.000000
0.866821 0.772258 0.000000
0.904444 0.771477 0.000000
0.942067 0.770696 0.000000
0.979690 0.769914 0.000000
1.000000 0.769133 0.000000
1.000000 0.768352 0.000000
1.000000 0.767571 0.000000
1.000000 0.766789 0.000000
0.000000 0.823463 0.000000
0.000000 0.822681 0.000000
0.000000 0.821900 0.000000
0.036164 0.821119 0.000000
0.073787 0.820337 0.000000
0.111410 0.819556 0.000000
0.149033 0.818775 0.000000
0.186656 0.817994 0.000000
0.224279 0.817212 0.000000
0.261902 0.816431 0.000000
0.299525 0.815650 0.000000
0.337148 0.814868 0.000000
0.374771 0.814087 0.000000
0.412394 0.813306 0.000000
0.450017 0.812524 0.000000
0.487640 0.811743 0.000000
0.525263 0.810962 0.000000
0.562886 0.810180 0.000000
0.600509 0.809399 0.000000
0.638132 0.808618 0.000000
0.675755 0.807837 0.000000
0.713378 0.807055 0.000000
0.751001 0.806274 0.000000
0.788624 0.805493 0.000000
0.826247 0.804711 0.000000
0.863870 0.803930 0.000000
0.901493 0.803149 0.000000
